packages/sources/icons/src/vitamix/google-fill.svg

<svg width="16" height="16" viewBox="0 0 16 16" xmlns="http://www.w3.org/2000/svg"><path d="M2.04271 5.00668C3.17394 2.75408 5.47935 1.33255 8.00004 1.33334C9.79671 1.33334 11.306 1.99334 12.46 3.07001L10.5487 4.98201C9.85738 4.32134 8.97871 3.98468 8.00004 3.98468C6.26337 3.98468 4.79337 5.15801 4.27004 6.73334C4.13671 7.13334 4.06071 7.56001 4.06071 8.00001C4.06071 8.44001 4.13671 8.86668 4.27004 9.26668C4.79404 10.8427 6.26337 12.0153 8.00004 12.0153C8.89671 12.0153 9.66004 11.7787 10.2574 11.3787C10.9572 10.9179 11.438 10.191 11.588 9.36668H8.00004V6.78801H14.2787C14.3574 7.22401 14.4 7.67868 14.4 8.15134C14.4 10.182 13.6734 11.8913 12.412 13.0513C11.3094 14.07 9.80004 14.6667 8.00004 14.6667C6.23171 14.6674 4.53561 13.9652 3.28521 12.7148C2.03482 11.4644 1.33267 9.76834 1.33337 8.00001C1.33337 6.92401 1.59071 5.90668 2.04271 5.00668Z"/></svg>

<svg width="16" height="16" xmlns="http://www.w3.org/2000/svg"><path d="M2.043 5.007A6.664 6.664 0 0 1 8 1.333c1.797 0 3.306.66 4.46 1.737l-1.911 1.912c-.692-.66-1.57-.997-2.549-.997-1.737 0-3.207 1.173-3.73 2.748-.133.4-.21.827-.21 1.267 0 .44.077.867.21 1.267.524 1.576 1.993 2.748 3.73 2.748.897 0 1.66-.236 2.257-.636a3.067 3.067 0 0 0 1.331-2.012H8V6.788h6.279c.078.436.121.89.121 1.363 0 2.031-.727 3.74-1.988 4.9C11.309 14.07 9.8 14.667 8 14.667a6.664 6.664 0 0 1-5.957-9.66Z"/></svg>
